source/images/icons/icon-editorial/billet.svg

<?xml version="1.0" encoding="UTF-8"?>
<svg width="80px" height="80px" viewBox="0 0 80 80" version="1.1" xmlns="http://www.w3.org/2000/svg" xmlns:xlink="http://www.w3.org/1999/xlink">
    <!-- Generator: Sketch 55.2 (78181) - https://sketchapp.com -->
    <title>Illustrative Icons/Billet</title>
    <desc>Created with Sketch.</desc>
    <g id="Illustrative-Icons/Billet" stroke="none" stroke-width="1" fill="none" fill-rule="evenodd">
        <path d="M46.6666667,73.6666667 C45.7461921,73.6666667 45,72.9204747 45,72 C45,69.2385763 42.7614238,67 40,67 C37.2385763,67 35,69.2385763 35,72 C35,72.9204747 34.2538079,73.6666667 33.3333333,73.6666667 L21.6666667,73.6666667 C20.7461921,73.6666667 20,72.9204747 20,72 L20,15.3333333 C20,14.4128588 20.7461921,13.6666667 21.6666667,13.6666667 C22.5871413,13.6666667 23.3333333,14.4128588 23.3333333,15.3333333 L23.3333333,70.3333334 L31.8333333,70.3333334 C32.6219875,66.4494601 36.036864,63.6583125 40,63.6583125 C43.963136,63.6583125 47.3780126,66.4494601 48.1666667,70.3333334 L56.6666667,70.3333334 L56.6666667,10.3333333 L48.1666667,10.3333333 C47.3147138,14.528988 43.4221093,17.3964478 39.1625066,16.9661849 C34.9029039,16.535922 31.662364,12.9479425 31.6666667,8.66666667 C31.6666667,7.74619208 32.4128588,7 33.3333334,7 C34.2538079,7 35,7.74619208 35,8.66666667 C35,11.4280904 37.2385763,13.6666665 40,13.6666665 C42.7614237,13.6666665 45,11.4280904 45,8.66666667 C45,7.74619208 45.7461921,7 46.6666667,7 L58.2366667,7 L58.33,7 C59.2504746,7 59.9966667,7.74619208 59.9966667,8.66666667 L59.9966667,72 C59.9966667,72.9204747 59.2504746,73.6666667 58.33,73.6666667 L46.6666667,73.6666667 Z M33.2266667,51.1800001 C32.6935859,51.1797941 32.1927676,50.9246003 31.8792834,50.4934358 C31.5657992,50.0622714 31.4774778,49.5071658 31.6416667,49.0000001 L33.855,42.1883334 L28.0616667,37.9783334 C27.4774929,37.5538805 27.2330954,36.8015244 27.4563102,36.1147971 C27.6795251,35.4280698 28.319573,34.9631952 29.0416667,34.9633334 L36.2083334,34.9633334 L38.4216667,28.1516667 C38.6464727,27.4677091 39.2850447,27.0054165 40.005,27.0054165 C40.7249554,27.0054165 41.3635274,27.4677091 41.5883334,28.1516667 L43.8016667,34.9633334 L50.9683334,34.9633334 C51.690427,34.9631952 52.330475,35.4280698 52.5536898,36.1147971 C52.7769047,36.8015244 52.5325072,37.5538805 51.9483334,37.9783334 L46.155,42.1883334 L48.3583334,49.0000001 C48.5815669,49.6867817 48.3371127,50.439196 47.7528533,50.8636288 C47.1685938,51.2880616 46.3774648,51.2879424 45.7933334,50.8633334 L40,46.6533334 L34.2066667,50.8633334 C33.921623,51.0697024 33.5785726,51.180552 33.2266667,51.1800001 Z M34.1666667,38.2966667 L36.79,40.2033334 C37.3739546,40.6278531 37.6181919,41.3800771 37.395,42.0666667 L36.395,45.1516667 L39.0183334,43.245 C39.6026301,42.8202466 40.3940366,42.8202466 40.9783334,43.245 L43.6016667,45.1516667 L42.6016667,42.0666667 C42.3784749,41.3800771 42.6227122,40.6278531 43.2066667,40.2033334 L45.8333334,38.2966667 L42.5866667,38.2966667 C41.8646501,38.2966219 41.2247698,37.8316827 41.0016667,37.145 L40.0016667,34.06 L39.0016667,37.145 C38.7785635,37.8316827 38.1386833,38.2966219 37.4166667,38.2966667 L34.1666667,38.2966667 Z M21.6666667,10.3333333 C22.5871413,10.3333333 23.3333333,9.58714125 23.3333333,8.66666667 C23.3333333,7.74619208 22.5871413,7 21.6666667,7 C20.7461921,7 20,7.74619208 20,8.66666667 C20,9.58714125 20.7461921,10.3333333 21.6666667,10.3333333 Z" id="Shape-color" fill="#ADB5BD"></path>
    </g>
</svg>

<svg width="80" height="80">
    <title>
        Illustrative Icons/Billet
    </title>
    <path d="M46.667 73.667C45.747 73.667 45 72.92 45 72a5 5 0 1 0-10 0c0 .92-.746 1.667-1.667 1.667H21.667C20.747 73.667 20 72.92 20 72V15.333a1.667 1.667 0 0 1 3.333 0v55h8.5a8.333 8.333 0 0 1 16.334 0h8.5v-60h-8.5a8.333 8.333 0 0 1-16.5-1.666 1.667 1.667 0 0 1 3.333 0 5 5 0 0 0 10 0C45 7.747 45.746 7 46.667 7H58.33c.92 0 1.667.746 1.667 1.667V72c0 .92-.747 1.667-1.667 1.667H46.667zM33.227 51.18A1.667 1.667 0 0 1 31.642 49l2.213-6.812-5.793-4.21a1.667 1.667 0 0 1 .98-3.015h7.166l2.214-6.811a1.667 1.667 0 0 1 3.166 0l2.214 6.811h7.166a1.667 1.667 0 0 1 .98 3.015l-5.793 4.21L48.358 49a1.667 1.667 0 0 1-2.565 1.863L40 46.653l-5.793 4.21a1.667 1.667 0 0 1-.98.317zm.94-12.883l2.623 1.906c.584.425.828 1.177.605 1.864l-1 3.085 2.623-1.907a1.667 1.667 0 0 1 1.96 0l2.624 1.907-1-3.085a1.667 1.667 0 0 1 .605-1.864l2.626-1.906h-3.246a1.667 1.667 0 0 1-1.585-1.152l-1-3.085-1 3.085a1.667 1.667 0 0 1-1.585 1.152h-3.25zm-12.5-27.964a1.667 1.667 0 1 0 0-3.333 1.667 1.667 0 0 0 0 3.333z" fill="#ADB5BD" fill-rule="evenodd"/>
</svg>
